X: 65
I: linebreak $
T: Merry Merry Milkmaids
T: longways for four couples
C: 
P: AABB x 3
K: G major
M: 6/4
L: 1/8
P: A
 |: "G"G2 | "G"G3AG2 D4d2 | "G"B6- B4G2 | "G"G3AG2 D4=F2 | "C"E6- E4C2 | "C"C3DEF G4A2 | "D"A3GFE D4d2 | 
"G"B3cd2 "D"A4G2 | "G"G6- G4 :: 
P: B
G2 | "G"B3cd2 d3cd2 | "G"B3cd2 d3cB2 | "C"c4d2 e4f2 | "G"g6- g4d2 | 
"Em"g4d2 "G"B3cd2 | "C"e4c2 "D"A3Bc2 | "G"d4B2 G3AB2 | "Am"A4F2 "D"D3EF2 | "C"G4G2 "Am"E3FG2 | "D"A4G2 F3ED2 | 
"G"B3cd2 "D"A4G2 | "G"G6- "G"G4 :| 

